X: 5622
T: Buttered Peas
R: polka
M: 2/4
K: Gmajor
|:d/c/|Bd dc/B/|ce ed/c/|Bd dc/B/|cA Ad/c/|
Bd dc/B/|ce ed/c/|Bd Ac|BG G:|
|:d/c/|Bd g>a|g/f/e/d/ gd|Bd gf/g/|aA Ad/c/|
Bd g>a|g/f/e/d/ gd/c/|Bd Ac|BG G:|

